X:1
T:Title
%%score { ( 1 3 ) | ( 2 4 ) }
L:1/8
M:6/8
K:Eb
V:1 treble nm="Grand Piano"
V:3 treble 
V:2 bass 
V:4 bass 
V:1
 z3 z2[Q:1/4=87] B | B>cB EEF | G3- G2 G | [DF][DF][EG] [FA][GB][FA] | [EG]3- [EG]2 [EG]/[FA]/ | %5
 [GB]2 G EGB | [Ed]2 [Ec] [CEF][CEG][CEA] | [Ec][EB][EG] [DB][DA][DF] |[M:5/8] E-E- E3 | %9
[M:1/8] [GB] |[M:3/4] d4 z2 |[M:5/8] B3 z2 |[M:1/8] G/G/ |[M:3/4] [DB]F G[FA] B[B,FA] | [EG]4 z2 | %15
 d4 z2 | B4 z2 | [DB][EB] [FB][GB] [FA][DF] |[M:5/8] E-E- E3 |] %19
V:2
 z3 z2 [E,G,E] | [E,G,E]>[E,A,E][E,G,E] [E,G,][G,B,][B,D] | [E,B,E]3- [E,B,E]2 [E,B,E] | %3
 [B,,B,][B,,B,][B,,B,] [B,,B,][B,,B,][B,,B,] | [E,B,]3- [E,B,]2 [E,B,]/[E,B,]/ | %5
 [E,E]2 [E,B,E] [E,G,][E,B,E][E,G,E] | [A,,A,]2 [A,,A,] A,,A,,A,, | %7
 [B,,A,][B,,G,][B,,B,] [B,,F,][B,,F,][B,,A,] |[M:5/8] [E,G,]-[E,G,]- [E,G,]3 |[M:1/8] [E,B,] | %10
[M:3/4] [B,,B,][B,,B,] .[B,,B,]2 GB,, |[M:5/8] [E,E][E,E][E,E] [E,B,E]2 |[M:1/8] [E,B,E]/[E,B,E]/ | %13
[M:3/4] z D .E2 GB,, | E,E, E, [E,E]2 [E,E] | [B,A]B,[K:bass] .B,2 GB,, | %16
 [E,E][E,E] [E,E] [E,B,E]2 [E,B,E]/[E,B,]/ | [B,,F,][B,,G,] [B,,A,][B,,B,] [B,,B,][B,,A,] | %18
[M:5/8] [E,G,]-[E,G,]- [E,G,]3 |] %19
V:3
 x6 | x6 | x6 | x6 | x6 | x6 | x6 | x6 |[M:5/8] x5 |[M:1/8] x |[M:3/4] AA A[FA] B[DAc] | %11
[M:5/8] GGG G2 |[M:1/8] x |[M:3/4] x6 | B,B, B, [GB]2 [GB] | z A A[FA] B[DAc] | GG G G2 G/G/ | x6 | %18
[M:5/8] x5 |] %19
V:4
 x6 | x6 | x6 | x6 | x6 | x6 | x6 | x6 |[M:5/8] x5 |[M:1/8] x |[M:3/4] z2 z .[B,,B,]3 |[M:5/8] x5 | %12
[M:1/8] x |[M:3/4] [B,,B,]3 .[B,,B,]3 | x6 | z2[K:bass] z .[B,,B,]3 | x6 | x6 |[M:5/8] x5 |] %19

